X:292
T:Glentilt
R:Reel
B:The Athole Collection
M:C|
L:1/8
K:A
A(aae feae|A(aac BcdB|A(aae feae|1 faec B2A>B:|2 faec B2A>e||
cAAe A/A/A ec|dfec BcdB|cAAe A/A/A ec|dfec B2(Ae|
cAAe A/A/A ec|dfce BcdB|Aaga faec|dfec B2A2|]

